images/logo-nuovo.svg

<svg width="256" height="256" fill="none" viewBox="0 0 256 256" xmlns="http://www.w3.org/2000/svg">
 <g clip-path="url(#clip0)">
  <g filter="url(#filter0_d)">
   <path d="m165.685 11.947c74.055 0 84.639 10.5572 84.639 84.5438v59.2512c0 73.986-10.584 84.543-84.639 84.543h-75.3698c-74.0557 0-84.63936-10.557-84.63936-84.543v-59.2512c0-73.9866 10.58366-84.5438 84.63936-84.5438h75.3698z" fill="url(#paint0_linear)"/>
  </g>
  <path d="m128.5 120c-13.128 0-25.719 5.215-35.0016 14.498-9.2831 9.283-14.4983 21.873-14.4984 35.002-1e-4 6.5 1.2802 12.937 3.7678 18.942 2.4876 6.006 6.1337 11.463 10.7302 16.06 4.5965 4.596 10.053 8.242 16.059 10.73s12.443 3.768 18.943 3.768 12.937-1.28 18.943-3.768 11.462-6.134 16.059-10.73c4.596-4.597 8.243-10.054 10.73-16.06 2.488-6.005 3.768-12.442 3.768-18.942 0-13.129-5.215-25.719-14.498-35.002s-21.874-14.498-35.002-14.498zm17.706 12.686c0.167-1e-3 0.335 6e-3 0.504 0.01 1.019 0.056 2.057 0.369 2.982 0.83 3.28 1.897 4.366 6.134 2.47 9.408-1.889 3.288-6.064 4.384-9.344 2.496-3.287-1.897-4.418-6.061-2.528-9.344 1.185-2.054 3.22-3.27 5.417-3.426 0.166-0.01 0.331-0.019 0.499-0.019v0.045zm-17.497 7.286c2.758 0 5.471 0.46 8.01 1.133 0.451 2.763 2.098 5.277 4.701 6.788 2.603 1.51 5.572 1.658 8.185 0.644 5.076 4.993 8.382 11.792 8.867 19.349l-9.73 0.092c-0.902-10.255-9.552-18.275-20.033-18.275-3.011 0-5.823 0.737-8.389 1.907l-4.765-8.602c3.977-1.972 8.412-3.095 13.154-3.095v0.059zm-16.516 5.029 5.026 8.39c-5.156 3.62-8.512 9.61-8.512 16.399 0 6.779 3.356 12.776 8.512 16.4l-5.026 8.455c-6.009-4.016-10.433-10.141-12.2921-17.325 2.1791-1.778 3.4831-4.522 3.4831-7.525 0-3.03-1.308-5.673-3.4831-7.442 1.8591-7.184 6.2831-13.344 12.2921-17.355v3e-3zm-18.3635 17.998c0.1676-1e-3 0.3354 6e-3 0.5053 9e-3v1e-3c1.0181 0.055 2.0569 0.368 2.9813 0.829 3.2799 1.897 4.3659 6.143 2.4702 9.408-1.8893 3.288-6.0639 4.394-9.3441 2.496-3.2871-1.897-4.4188-6.06-2.5294-9.344 1.185-2.054 3.2214-3.269 5.4189-3.426 0.164-9e-3 0.3307-0.012 0.4979-0.012l-1e-4 0.039zm54.9125 8.611 9.73 0.185c-0.486 7.562-3.793 14.349-8.868 19.347-2.613-0.995-5.574-0.829-8.184 0.645-2.607 1.51-4.251 4.025-4.702 6.779-2.54 0.737-5.251 1.068-8.009 1.068-4.742 0-9.177-1.087-13.154-3.067l4.763-8.538c2.567 1.197 5.377 1.879 8.391 1.879 10.481 0 19.131-8.041 20.033-18.274v-0.024zm-2.516 21.616c0.162 0 0.324 8e-3 0.489 0.012 2.198 0.184 4.262 1.372 5.447 3.417 1.896 3.279 0.814 7.46-2.47 9.35-3.284 1.888-7.507 0.828-9.404-2.506-1.889-3.269-0.757-7.433 2.53-9.316 0.923-0.553 1.925-0.829 2.918-0.949 0.166-0.012 0.327-0.012 0.489-0.012l1e-3 4e-3z" fill="#FFF9F9"/>
  <path d="m61.0055 68c5.4807 0 10.2542-3.3149 10.2542-9.1934 0-5.5248-5.0829-8.1326-8.9282-9.9005-3.1381-1.4586-5.9227-2.4752-5.9227-4.6409 0-2.1216 1.7238-3.315 3.9337-3.315 2.3426 0 4.0221 1.4144 4.9061 3.2266l4.7293-1.5912c-1.105-3.7569-4.6851-6.5856-9.326-6.5856-5.8342 0-9.5469 3.7127-9.5469 8.1768 0 5.2596 4.5525 7.4255 8.4862 9.1492 3.4033 1.5028 6.3646 3.1823 6.3646 5.6133 0 2.7403-1.8564 4.1103-4.5083 4.1103-2.7845 0-5.3481-1.9446-6.674-4.7733l-4.7735 1.7678c1.6354 4.8177 5.9668 7.9559 11.0055 7.9559z" fill="#FFF9F9"/>
  <path d="m86.3418 68c2.7404 0 5.0829-1.1492 6.3205-2.6962v2.1658h5.0829v-22.5856h-5.0829v12.7293c0 4.243-2.3426 5.5248-4.9945 5.5248-2.5635 0-4.6409-1.4144-4.6409-5.6133v-12.6408h-5.0828v13.7458c0 6.9835 3.8011 9.3702 8.3977 9.3702z" fill="#FFF9F9"/>
  <path d="m120.916 44.3537c-3.315 0-6.453 1.5028-7.735 4.1547v-3.6243h-9.503v4.464h4.774v13.6575h-4.774v4.4641h16.177v-4.4641h-6.321v-7.3812c0-4.4199 2.741-6.5414 7.293-6.5414h0.442v4.8176h4.951v-8.3536c-1.326-0.7072-3.006-1.1933-5.304-1.1933z" fill="#FFF9F9"/>
  <path d="m140.727 68c2.74 0 5.083-1.1492 6.321-2.6962v2.1658h5.082v-22.5856h-5.082v12.7293c0 4.243-2.343 5.5248-4.995 5.5248-2.563 0-4.641-1.4144-4.641-5.6133v-12.6408h-5.083v13.7458c0 6.9835 3.801 9.3702 8.398 9.3702z" fill="#FFF9F9"/>
  <path d="m171.729 54.7846h7.823v-4.9504h-7.823v-7.9116h-5.127v7.9116h-7.823v4.9504h7.823v7.9115h5.127v-7.9115z" fill="#FFF9F9"/>
  <path d="m198.922 54.7846h7.823v-4.9504h-7.823v-7.9116h-5.127v7.9116h-7.823v4.9504h7.823v7.9115h5.127v-7.9115z" fill="#FFF9F9"/>
  <path d="m128 240h36.305c9.372 0 17.74-0.164 25.209-0.597 3.735-0.216 7.244-0.499 10.542-0.862s6.384-0.806 9.271-1.341c2.887-0.536 5.575-1.166 8.078-1.9s4.82-1.573 6.965-2.531c2.144-0.959 4.116-2.036 5.928-3.244 1.813-1.208 3.465-2.547 4.972-4.031 1.506-1.484 2.866-3.112 4.093-4.897s2.32-3.726 3.293-5.839c0.972-2.112 1.825-4.395 2.57-6.861 0.746-2.465 1.384-5.114 1.928-7.959 0.544-2.844 0.994-5.884 1.363-9.133s0.656-6.705 0.876-10.385c0.439-7.358 0.607-15.603 0.607-24.838v-59.1641c0-9.2346-0.168-17.4796-0.607-24.8382-0.22-3.6792-0.507-7.1361-0.876-10.385s-0.819-6.2886-1.363-9.133c-0.544-2.8443-1.182-5.4933-1.928-7.9588-0.745-2.4655-1.598-4.7485-2.57-6.861-0.973-2.1124-2.066-4.0537-3.293-5.839-1.227-1.7852-2.587-3.4133-4.093-4.897-1.507-1.4838-3.159-2.8231-4.972-4.0311-1.812-1.2081-3.784-2.2852-5.928-3.2433-2.145-0.9581-4.462-1.7974-6.965-2.5314s-5.191-1.3639-8.078-1.8996c-2.887-0.5356-5.973-0.9786-9.271-1.3417-3.298-0.3632-6.807-0.6457-10.542-0.862-7.469-0.4325-15.837-0.5968-25.209-0.5968h-36.305v228z" fill="#fff" opacity=".25"/>
  <path d="m10.7906 54.0876c-2.10567 11.0777-2.76778 25.2988-2.76778 43.5904v58.644c0 18.291 0.66211 32.513 2.76778 43.59 2.1017 11.057 5.6065 18.785 11.1436 24.273 5.5391 5.49 13.3416 8.966 24.5028 11.05 11.1797 2.087 25.5285 2.742 43.9781 2.742h75.1699c18.449 0 32.798-0.655 43.978-2.742 11.161-2.084 18.964-5.56 24.503-11.05 5.537-5.488 9.042-13.216 11.143-24.273 2.106-11.077 2.768-25.299 2.768-43.59v-58.644c0-18.2916-0.662-32.5127-2.768-43.5904-2.101-11.0568-5.606-18.7848-11.143-24.2727-5.539-5.4899-13.342-8.9659-24.503-11.0496-11.18-2.0871-25.529-2.7425-43.978-2.7425h-75.1699c-18.4496 0-32.7984 0.6554-43.9781 2.7425-11.1612 2.0837-18.9637 5.5597-24.5028 11.0496-5.5371 5.4879-9.0419 13.2159-11.1436 24.2727zm34.904-39.2992c11.5725-2.1605 26.2404-2.8112 44.7205-2.8112h75.1699c18.48 0 33.148 0.6507 44.72 2.8112 11.591 2.1639 20.276 5.8771 26.609 12.153 6.334 6.278 10.084 14.8926 12.27 26.3907 2.181 11.4772 2.839 26.023 2.839 44.3459v58.644c0 18.323-0.658 32.869-2.839 44.346-2.186 11.498-5.936 20.112-12.27 26.39-6.333 6.276-15.018 9.99-26.609 12.154-11.572 2.16-26.24 2.811-44.72 2.811h-75.1699c-18.4801 0-33.148-0.651-44.7205-2.811-11.591-2.164-20.2761-5.878-26.6083-12.154-6.3342-6.278-10.08455-14.892-12.27014-26.39-2.18161-11.477-2.83896-26.023-2.83896-44.346v-58.644c0-18.3229 0.65735-32.8687 2.83896-44.3459 2.18559-11.4981 5.93594-20.1127 12.27014-26.3907 6.3323-6.2759 15.0173-9.9891 26.6083-12.153z" clip-rule="evenodd" fill="url(#paint1_linear)" fill-rule="evenodd" opacity=".6"/>
  <path d="m83.7313 104c-1.9775 0-3.5938-0.629-4.8488-1.888-1.255-1.278-1.8825-3.3095-1.8825-6.0943v-12.3883h3.3657v12.3883c0 1.7357 0.2947 2.966 0.8842 3.6907 0.5894 0.7056 1.4166 1.0586 2.4814 1.0586 2.2438 0 3.3657-1.5831 3.3657-4.7493v-12.3883h3.3942v12.3883c0 2.7466-0.6275 4.7683-1.8825 6.0653-1.255 1.278-2.8808 1.917-4.8774 1.917z" fill="#FFF9F9"/>
  <path d="m102.02 104c-1.597 0-2.8329-0.486-3.7076-1.459v1.116h-3.2801v-19.1407l3.2801-1.5163v7.1812c0.3993-0.4387 0.9412-0.7916 1.6258-1.0586 0.7038-0.2861 1.4168-0.4291 2.1388-0.4291 1.826 0 3.309 0.6866 4.45 2.0599s1.711 3.233 1.711 5.579c0 2.4414-0.551 4.3296-1.654 5.6646s-2.624 2.003-4.564 2.003zm-0.513-3.147c1.122 0 1.968-0.391 2.538-1.1732 0.59-0.8011 0.885-1.9169 0.885-3.3474 0-1.4686-0.295-2.5844-0.885-3.3474-0.57-0.782-1.416-1.173-2.538-1.173-0.723 0-1.369 0.1526-1.9396 0.4578-0.5515 0.2861-0.9698 0.6198-1.255 1.0013v6.1512c0.7035 0.9537 1.7686 1.4307 3.1946 1.4307z" fill="#FFF9F9"/>
  <path d="m117.913 104c-1.616 0-2.928-0.477-3.936-1.431-0.988-0.972-1.483-2.517-1.483-4.6344v-8.8978h3.28v8.1825c0 2.4224 0.999 3.6337 2.995 3.6337 2.149 0 3.223-1.1922 3.223-3.5764v-8.2398h3.28v14.6202h-3.28v-1.402c-0.932 1.163-2.291 1.745-4.079 1.745z" fill="#FFF9F9"/>
  <path d="m137.486 88.6935c1.597 0 2.89 0.4863 3.879 1.4591 1.008 0.9537 1.512 2.4796 1.512 4.5776v8.9268h-3.28v-8.2401c0-1.2589-0.276-2.1744-0.828-2.7466-0.551-0.5722-1.283-0.8583-2.196-0.8583-2.149 0-3.223 1.1825-3.223 3.5477v8.2973h-3.28v-14.6202h3.023v1.8024c0.286-0.5722 0.837-1.0681 1.655-1.4877 0.836-0.4387 1.749-0.658 2.738-0.658z" fill="#FFF9F9"/>
  <path d="m155.376 104c-2.853 0-4.279-1.326-4.279-3.977v-8.0966h-3.052v-2.8896h3.052v-4.4632l3.28-1.5736v6.0368h4.963v2.8896h-4.963v7.4673c0 1.1253 0.685 1.6883 2.054 1.6883 0.799 0 1.635-0.229 2.51-0.687l-0.399 2.947c-0.837 0.439-1.892 0.658-3.166 0.658z" fill="#FFF9F9"/>
  <path d="m170.641 104c-1.616 0-2.928-0.477-3.936-1.431-0.989-0.972-1.483-2.517-1.483-4.6344v-8.8978h3.28v8.1825c0 2.4224 0.998 3.6337 2.995 3.6337 2.149 0 3.223-1.1922 3.223-3.5764v-8.2398h3.28v14.6202h-3.28v-1.402c-0.932 1.163-2.291 1.745-4.079 1.745z" fill="#FFF9F9"/>
 </g>
 <defs>
  <filter id="filter0_d" x="-4.32" y="5.95" width="264.648" height="248.338" color-interpolation-filters="sRGB" filterUnits="userSpaceOnUse">
   <feFlood flood-opacity="0" result="BackgroundImageFix"/>
   <feColorMatrix in="SourceAlpha" values="0 0 0 0 0 0 0 0 0 0 0 0 0 0 0 0 0 0 127 0"/>
   <feOffset dy="4"/>
   <feGaussianBlur stdDeviation="5"/>
   <feColorMatrix values="0 0 0 0 0 0 0 0 0 0 0 0 0 0 0 0 0 0 0.4 0"/>
   <feBlend in2="BackgroundImageFix" result="effect1_dropShadow"/>
   <feBlend in="SourceGraphic" in2="effect1_dropShadow" result="shape"/>
  </filter>
  <linearGradient id="paint0_linear" x1="185.085" x2="70.915" y1="256.596" y2="-4.363" gradientUnits="userSpaceOnUse">
   <stop stop-color="#F37E40" offset="0"/>
   <stop stop-color="#F34F17" offset="1"/>
  </linearGradient>
  <linearGradient id="paint1_linear" x1="132.067" x2="132.067" y1="14" y2="240" gradientUnits="userSpaceOnUse">
   <stop stop-color="#fff" offset="0"/>
   <stop stop-color="#fff" stop-opacity=".098" offset=".125"/>
   <stop stop-opacity=".098" offset=".925"/>
   <stop stop-opacity=".498" offset="1"/>
  </linearGradient>
  <clipPath id="clip0">
   <rect width="256" height="256" fill="#fff"/>
  </clipPath>
 </defs>
</svg>

<svg xmlns="http://www.w3.org/2000/svg" fill="none" width="256" height="256" viewBox="0 0 256 256">
 <g clip-path="url(#clip0)">
  <g filter="url(#filter0_d)">
   <path fill="url(#paint0_linear)" d="M165.685 11.947C239.74 11.947 250.324 22.5042 250.324 96.4908V155.742C250.324 229.728 239.74 240.285 165.685 240.285H90.3152C16.2595 240.285 5.67584 229.728 5.67584 155.742V96.4908C5.67584 22.5042 16.2595 11.947 90.3152 11.947H165.685Z"/>
  </g>
  <path fill="#FFF9F9" d="M128.5 120C115.372 120 102.781 125.215 93.4984 134.498C84.2153 143.781 79.0001 156.371 79 169.5C78.9999 176 80.2802 182.437 82.7678 188.442C85.2554 194.448 88.9015 199.905 93.498 204.502C98.0945 209.098 103.551 212.744 109.557 215.232C115.563 217.72 122 219 128.5 219C135 219 141.437 217.72 147.443 215.232C153.449 212.744 158.905 209.098 163.502 204.502C168.098 199.905 171.745 194.448 174.232 188.442C176.72 182.437 178 176 178 169.5C178 156.371 172.785 143.781 163.502 134.498C154.219 125.215 141.628 120 128.5 120ZM146.206 132.686C146.373 132.685 146.541 132.692 146.71 132.696V132.696C147.729 132.752 148.767 133.065 149.692 133.526C152.972 135.423 154.058 139.66 152.162 142.934C150.273 146.222 146.098 147.318 142.818 145.43C139.531 143.533 138.4 139.369 140.29 136.086C141.475 134.032 143.51 132.816 145.707 132.66C145.873 132.65 146.038 132.641 146.206 132.641L146.206 132.686ZM128.709 139.972C131.467 139.972 134.18 140.432 136.719 141.105C137.17 143.868 138.817 146.382 141.42 147.893C144.023 149.403 146.992 149.551 149.605 148.537C154.681 153.53 157.987 160.329 158.472 167.886L148.742 167.978C147.84 157.723 139.19 149.703 128.709 149.703C125.698 149.703 122.886 150.44 120.32 151.61L115.555 143.008C119.532 141.036 123.967 139.913 128.709 139.913L128.709 139.972ZM112.193 145.001L117.219 153.391C112.063 157.011 108.707 163.001 108.707 169.79C108.707 176.569 112.063 182.566 117.219 186.19L112.193 194.645C106.184 190.629 101.76 184.504 99.9009 177.32C102.08 175.542 103.384 172.798 103.384 169.795C103.384 166.765 102.076 164.122 99.9009 162.353C101.76 155.169 106.184 149.009 112.193 144.998V145.001ZM93.8295 162.999C93.9971 162.998 94.1649 163.005 94.3348 163.008V163.009C95.3529 163.064 96.3917 163.377 97.3161 163.838C100.596 165.735 101.682 169.981 99.7863 173.246C97.897 176.534 93.7224 177.64 90.4422 175.742C87.1551 173.845 86.0234 169.682 87.9128 166.398C89.0978 164.344 91.1342 163.129 93.3317 162.972C93.4957 162.963 93.6624 162.96 93.8296 162.96L93.8295 162.999ZM148.742 171.61L158.472 171.795C157.986 179.357 154.679 186.144 149.604 191.142C146.991 190.147 144.03 190.313 141.42 191.787C138.813 193.297 137.169 195.812 136.718 198.566C134.178 199.303 131.467 199.634 128.709 199.634C123.967 199.634 119.532 198.547 115.555 196.567L120.318 188.029C122.885 189.226 125.695 189.908 128.709 189.908C139.19 189.908 147.84 181.867 148.742 171.634L148.742 171.61ZM146.226 193.226C146.388 193.226 146.55 193.234 146.715 193.238C148.913 193.422 150.977 194.61 152.162 196.655C154.058 199.934 152.976 204.115 149.692 206.005C146.408 207.893 142.185 206.833 140.288 203.499C138.399 200.23 139.531 196.066 142.818 194.183C143.741 193.63 144.743 193.354 145.736 193.234C145.902 193.222 146.063 193.222 146.225 193.222L146.226 193.226Z"/>
  <path fill="#FFF9F9" d="M61.0055 68C66.4862 68 71.2597 64.6851 71.2597 58.8066C71.2597 53.2818 66.1768 50.674 62.3315 48.9061C59.1934 47.4475 56.4088 46.4309 56.4088 44.2652C56.4088 42.1436 58.1326 40.9502 60.3425 40.9502C62.6851 40.9502 64.3646 42.3646 65.2486 44.1768L69.9779 42.5856C68.8729 38.8287 65.2928 36 60.6519 36C54.8177 36 51.105 39.7127 51.105 44.1768C51.105 49.4364 55.6575 51.6023 59.5912 53.326C62.9945 54.8288 65.9558 56.5083 65.9558 58.9393C65.9558 61.6796 64.0994 63.0496 61.4475 63.0496C58.663 63.0496 56.0994 61.105 54.7735 58.2763L50 60.0441C51.6354 64.8618 55.9668 68 61.0055 68Z"/>
  <path fill="#FFF9F9" d="M86.3418 68C89.0822 68 91.4247 66.8508 92.6623 65.3038V67.4696H97.7452V44.884H92.6623V57.6133C92.6623 61.8563 90.3197 63.1381 87.6678 63.1381C85.1043 63.1381 83.0269 61.7237 83.0269 57.5248V44.884H77.9441V58.6298C77.9441 65.6133 81.7452 68 86.3418 68Z"/>
  <path fill="#FFF9F9" d="M120.916 44.3537C117.601 44.3537 114.463 45.8565 113.181 48.5084V44.8841H103.678V49.3481H108.452V63.0056H103.678V67.4697H119.855V63.0056H113.534V55.6244C113.534 51.2045 116.275 49.083 120.827 49.083H121.269V53.9006H126.22V45.547C124.894 44.8398 123.214 44.3537 120.916 44.3537Z"/>
  <path fill="#FFF9F9" d="M140.727 68C143.467 68 145.81 66.8508 147.048 65.3038V67.4696H152.13V44.884H147.048V57.6133C147.048 61.8563 144.705 63.1381 142.053 63.1381C139.49 63.1381 137.412 61.7237 137.412 57.5248V44.884H132.329V58.6298C132.329 65.6133 136.13 68 140.727 68Z"/>
  <path fill="#FFF9F9" d="M171.729 54.7846H179.552V49.8342H171.729V41.9226H166.602V49.8342H158.779V54.7846H166.602V62.6961H171.729V54.7846Z"/>
  <path fill="#FFF9F9" d="M198.922 54.7846H206.745V49.8342H198.922V41.9226H193.795V49.8342H185.972V54.7846H193.795V62.6961H198.922V54.7846Z"/>
  <path fill="#fff" opacity=".25" d="M128 240H164.305C173.677 240 182.045 239.836 189.514 239.403C193.249 239.187 196.758 238.904 200.056 238.541C203.354 238.178 206.44 237.735 209.327 237.2C212.214 236.664 214.902 236.034 217.405 235.3C219.908 234.566 222.225 233.727 224.37 232.769C226.514 231.81 228.486 230.733 230.298 229.525C232.111 228.317 233.763 226.978 235.27 225.494C236.776 224.01 238.136 222.382 239.363 220.597C240.59 218.812 241.683 216.871 242.656 214.758C243.628 212.646 244.481 210.363 245.226 207.897C245.972 205.432 246.61 202.783 247.154 199.938C247.698 197.094 248.148 194.054 248.517 190.805C248.886 187.556 249.173 184.1 249.393 180.42C249.832 173.062 250 164.817 250 155.582V96.4179C250 87.1833 249.832 78.9383 249.393 71.5797C249.173 67.9005 248.886 64.4436 248.517 61.1947C248.148 57.9458 247.698 54.9061 247.154 52.0617C246.61 49.2174 245.972 46.5684 245.226 44.1029C244.481 41.6374 243.628 39.3544 242.656 37.2419C241.683 35.1295 240.59 33.1882 239.363 31.4029C238.136 29.6177 236.776 27.9896 235.27 26.5059C233.763 25.0221 232.111 23.6828 230.298 22.4748C228.486 21.2667 226.514 20.1896 224.37 19.2315C222.225 18.2734 219.908 17.4341 217.405 16.7001C214.902 15.9661 212.214 15.3362 209.327 14.8005C206.44 14.2649 203.354 13.8219 200.056 13.4588C196.758 13.0956 193.249 12.8131 189.514 12.5968C182.045 12.1643 173.677 12 164.305 12H128V240Z"/>
  <path fill="url(#paint1_linear)" fill-rule="evenodd" opacity=".6" d="M10.7906 54.0876C8.68493 65.1653 8.02282 79.3864 8.02282 97.678V156.322C8.02282 174.613 8.68493 188.835 10.7906 199.912C12.8923 210.969 16.3971 218.697 21.9342 224.185C27.4733 229.675 35.2758 233.151 46.437 235.235C57.6167 237.322 71.9655 237.977 90.4151 237.977H165.585C184.034 237.977 198.383 237.322 209.563 235.235C220.724 233.151 228.527 229.675 234.066 224.185C239.603 218.697 243.108 210.969 245.209 199.912C247.315 188.835 247.977 174.613 247.977 156.322V97.678C247.977 79.3864 247.315 65.1653 245.209 54.0876C243.108 43.0308 239.603 35.3028 234.066 29.8149C228.527 24.325 220.724 20.849 209.563 18.7653C198.383 16.6782 184.034 16.0228 165.585 16.0228H90.4151C71.9655 16.0228 57.6167 16.6782 46.437 18.7653C35.2758 20.849 27.4733 24.325 21.9342 29.8149C16.3971 35.3028 12.8923 43.0308 10.7906 54.0876ZM45.6946 14.7884C57.2671 12.6279 71.935 11.9772 90.4151 11.9772H165.585C184.065 11.9772 198.733 12.6279 210.305 14.7884C221.896 16.9523 230.581 20.6655 236.914 26.9414C243.248 33.2194 246.998 41.834 249.184 53.3321C251.365 64.8093 252.023 79.3551 252.023 97.678V156.322C252.023 174.645 251.365 189.191 249.184 200.668C246.998 212.166 243.248 220.78 236.914 227.058C230.581 233.334 221.896 237.048 210.305 239.212C198.733 241.372 184.065 242.023 165.585 242.023H90.4151C71.935 242.023 57.2671 241.372 45.6946 239.212C34.1036 237.048 25.4185 233.334 19.0863 227.058C12.7521 220.78 9.00175 212.166 6.81616 200.668C4.63455 189.191 3.9772 174.645 3.9772 156.322V97.678C3.9772 79.3551 4.63455 64.8093 6.81616 53.3321C9.00175 41.834 12.7521 33.2194 19.0863 26.9414C25.4186 20.6655 34.1036 16.9523 45.6946 14.7884Z" clip-rule="evenodd"/>
  <path fill="#FFF9F9" d="M83.7313 104C81.7538 104 80.1375 103.371 78.8825 102.112C77.6275 100.834 77 98.8025 77 96.0177V83.6294H80.3657V96.0177C80.3657 97.7534 80.6604 98.9837 81.2499 99.7084C81.8393 100.414 82.6665 100.767 83.7313 100.767C85.9751 100.767 87.097 99.1839 87.097 96.0177V83.6294H90.4912V96.0177C90.4912 98.7643 89.8637 100.786 88.6087 102.083C87.3537 103.361 85.7279 104 83.7313 104Z"/>
  <path fill="#FFF9F9" d="M102.02 104C100.423 104 99.1871 103.514 98.3124 102.541V103.657H95.0323V84.5163L98.3124 83V90.1812C98.7117 89.7425 99.2536 89.3896 99.9382 89.1226C100.642 88.8365 101.355 88.6935 102.077 88.6935C103.903 88.6935 105.386 89.3801 106.527 90.7534C107.668 92.1267 108.238 93.9864 108.238 96.3324C108.238 98.7738 107.687 100.662 106.584 101.997C105.481 103.332 103.96 104 102.02 104ZM101.507 100.853C102.629 100.853 103.475 100.462 104.045 99.6798C104.635 98.8787 104.93 97.7629 104.93 96.3324C104.93 94.8638 104.635 93.748 104.045 92.985C103.475 92.203 102.629 91.812 101.507 91.812C100.784 91.812 100.138 91.9646 99.5674 92.2698C99.0159 92.5559 98.5976 92.8896 98.3124 93.2711V99.4223C99.0159 100.376 100.081 100.853 101.507 100.853Z"/>
  <path fill="#FFF9F9" d="M117.913 104C116.297 104 114.985 103.523 113.977 102.569C112.989 101.597 112.494 100.052 112.494 97.9346V89.0368H115.774V97.2193C115.774 99.6417 116.773 100.853 118.769 100.853C120.918 100.853 121.992 99.6608 121.992 97.2766V89.0368H125.272V103.657H121.992V102.255C121.06 103.418 119.701 104 117.913 104Z"/>
  <path fill="#FFF9F9" d="M137.486 88.6935C139.083 88.6935 140.376 89.1798 141.365 90.1526C142.373 91.1063 142.877 92.6322 142.877 94.7302V103.657H139.597V95.4169C139.597 94.158 139.321 93.2425 138.769 92.6703C138.218 92.0981 137.486 91.812 136.573 91.812C134.424 91.812 133.35 92.9945 133.35 95.3597V103.657H130.07V89.0368H133.093V90.8392C133.379 90.267 133.93 89.7711 134.748 89.3515C135.584 88.9128 136.497 88.6935 137.486 88.6935Z"/>
  <path fill="#FFF9F9" d="M155.376 104C152.523 104 151.097 102.674 151.097 100.023V91.9264H148.045V89.0368H151.097V84.5736L154.377 83V89.0368H159.34V91.9264H154.377V99.3937C154.377 100.519 155.062 101.082 156.431 101.082C157.23 101.082 158.066 100.853 158.941 100.395L158.542 103.342C157.705 103.781 156.65 104 155.376 104Z"/>
  <path fill="#FFF9F9" d="M170.641 104C169.025 104 167.713 103.523 166.705 102.569C165.716 101.597 165.222 100.052 165.222 97.9346V89.0368H168.502V97.2193C168.502 99.6417 169.5 100.853 171.497 100.853C173.646 100.853 174.72 99.6608 174.72 97.2766V89.0368H178V103.657H174.72V102.255C173.788 103.418 172.429 104 170.641 104Z"/>
 </g>
 <defs>
  <filter id="filter0_d" width="264.648" height="248.338" x="-4.32" y="5.95" color-interpolation-filters="sRGB" filterUnits="userSpaceOnUse">
   <feFlood flood-opacity="0" result="BackgroundImageFix"/>
   <feColorMatrix in="SourceAlpha" type="matrix" values="0 0 0 0 0 0 0 0 0 0 0 0 0 0 0 0 0 0 127 0"/>
   <feOffset dy="4"/>
   <feGaussianBlur stdDeviation="5"/>
   <feColorMatrix type="matrix" values="0 0 0 0 0 0 0 0 0 0 0 0 0 0 0 0 0 0 0.4 0"/>
   <feBlend in2="BackgroundImageFix" mode="normal" result="effect1_dropShadow"/>
   <feBlend in="SourceGraphic" in2="effect1_dropShadow" mode="normal" result="shape"/>
  </filter>
  <linearGradient id="paint0_linear" x1="185.085" x2="70.915" y1="256.596" y2="-4.363" gradientUnits="userSpaceOnUse">
   <stop stop-color="#F37E40"/>
   <stop offset="1" stop-color="#F34F17"/>
  </linearGradient>
  <linearGradient id="paint1_linear" x1="132.067" x2="132.067" y1="14" y2="240" gradientUnits="userSpaceOnUse">
   <stop stop-color="#fff"/>
   <stop offset=".125" stop-color="#fff" stop-opacity=".098"/>
   <stop offset=".925" stop-opacity=".098"/>
   <stop offset="1" stop-opacity=".498"/>
  </linearGradient>
  <clipPath id="clip0">
   <rect fill="#fff" width="256" height="256"/>
  </clipPath>
 </defs>
</svg>
